!! 00000] TT[WS
!!!OTL: Nao zhuangjia
!!!ARE: Asia, China, Shanxi Linnan
!! Ethnic Group: Han
!! WII, 43
!!!SCT: J0458
!!!YEM: Copyright 1995, estate of Helmut Schaffrath.
**kern
*ICvox
*Ivox
*M2/4
*k[b-]
*F:
{4a
4a
=1
8a
8ff
8dd
8ff
=2
8a
8cc
8a
8g
=3
8f
8e
8d
8c}
=4
{8f
8f
8f
8g
=5
4a
8a
8cc
=6
8dd
8ff
8dd
8a
=7
2g}
==
!!!AGN: Xiaodiao. Laodong, Zhongzhi
!!!ONB: ESAC (Essen Associative Code) Database: CHINA
!!!AMT: simple duple
!!!AIN: vox
!!!EED: Helmut Schaffrath
!!!EEV: 1.0
*-
